Frontend/public/icons/themeSwitch/sun.svg

<svg width="44" height="44" viewBox="0 0 44 44" fill="none" xmlns="http://www.w3.org/2000/svg">
  <path
    d="M22 29C23.9333 29 25.5833 28.3167 26.95 26.95C28.3167 25.5833 29 23.9333 29 22C29 20.0667 28.3167 18.4167 26.95 17.05C25.5833 15.6833 23.9333 15 22 15C20.0667 15 18.4167 15.6833 17.05 17.05C15.6833 18.4167 15 20.0667 15 22C15 23.9333 15.6833 25.5833 17.05 26.95C18.4167 28.3167 20.0667 29 22 29ZM22 32C19.2333 32 16.875 31.025 14.925 29.075C12.975 27.125 12 24.7667 12 22C12 19.2333 12.975 16.875 14.925 14.925C16.875 12.975 19.2333 12 22 12C24.7667 12 27.125 12.975 29.075 14.925C31.025 16.875 32 19.2333 32 22C32 24.7667 31.025 27.125 29.075 29.075C27.125 31.025 24.7667 32 22 32ZM8 23.5H0V20.5H8V23.5ZM44 23.5H36V20.5H44V23.5ZM20.5 8V0H23.5V8H20.5ZM20.5 44V36H23.5V44H20.5ZM11.1 13.1L6.1 8.25L8.25 6.05L13.05 11.05L11.1 13.1ZM35.8 37.9L30.9 32.9L32.95 30.85L37.9 35.75L35.8 37.9ZM30.85 11.05L35.75 6.1L37.95 8.2L33 13.1L30.85 11.05ZM6.1 35.75L11.05 30.85L13.15 32.95L8.25 37.9L6.1 35.75Z"
    fill="#FBF5E5" />
</svg>

<svg width="44" height="44" fill="none" xmlns="http://www.w3.org/2000/svg"><path d="M22 29c1.933 0 3.583-.683 4.95-2.05C28.317 25.583 29 23.933 29 22c0-1.933-.683-3.583-2.05-4.95C25.583 15.683 23.933 15 22 15c-1.933 0-3.583.683-4.95 2.05C15.683 18.417 15 20.067 15 22c0 1.933.683 3.583 2.05 4.95C18.417 28.317 20.067 29 22 29Zm0 3c-2.767 0-5.125-.975-7.075-2.925C12.975 27.125 12 24.767 12 22c0-2.767.975-5.125 2.925-7.075C16.875 12.975 19.233 12 22 12c2.767 0 5.125.975 7.075 2.925C31.025 16.875 32 19.233 32 22c0 2.767-.975 5.125-2.925 7.075C27.125 31.025 24.767 32 22 32ZM8 23.5H0v-3h8v3Zm36 0h-8v-3h8v3ZM20.5 8V0h3v8h-3Zm0 36v-8h3v8h-3Zm-9.4-30.9-5-4.85 2.15-2.2 4.8 5-1.95 2.05Zm24.7 24.8-4.9-5 2.05-2.05 4.95 4.9-2.1 2.15Zm-4.95-26.85 4.9-4.95 2.2 2.1L33 13.1l-2.15-2.05ZM6.1 35.75l4.95-4.9 2.1 2.1-4.9 4.95-2.15-2.15Z" fill="#FBF5E5"/></svg>
